X:84
T:84. RH Pocket: Tremolo Shimmer
T:Use for atmosphere — continuous high-register alternation
C:RH two chord tones alternating as sixteenths; LH anchor
M:4/4
L:1/16
Q:1/4=76
%%score {V1 V2}
V:V1 clef=treble
V:V2 clef=bass
K:C
[V:V1] "C" c'gc'g c'gc'g c'gc'g c'gc'g | "F" c'fc'f c'fc'f c'fc'f c'fc'f | "G" d'gd'g d'gd'g d'gd'g d'gd'g | "C" c'gc'g c'gc'g c'gc'g c'gc'g |]
[V:V2] C,16 | F,16 | G,16 | C,16 |]

